icons/share-forward-two-fill.svg

<svg xmlns="http://www.w3.org/2000/svg" width="24" height="24" fill="none"><g clip-path="url(#a)"><g><path fill="#121212" d="M4 19H20V14H22V20C22 20.2652 21.8946 20.5196 21.7071 20.7071C21.5196 20.8946 21.2652 21 21 21H3C2.73478 21 2.48043 20.8946 2.29289 20.7071C2.10536 20.5196 2 20.2652 2 20V14H4V19ZM12 10H9C8.05306 9.99934 7.11945 10.2231 6.27571 10.653C5.43197 11.0828 4.70212 11.7066 4.146 12.473C4.50098 10.6505 5.47863 9.00808 6.91148 7.82717C8.34433 6.64626 10.1432 6.00032 12 6V2L20 8L12 14V10Z"/></g></g><defs><clipPath id="a"><rect width="24" height="24" fill="white"/></clipPath></defs></svg>

<svg width="24" height="24" fill="none" xmlns="http://www.w3.org/2000/svg"><g clip-path="url(#a)"><path d="M4 19h16v-5h2v6a1 1 0 0 1-1 1H3a1 1 0 0 1-1-1v-6h2v5Zm8-9H9a5.992 5.992 0 0 0-4.854 2.473A8.003 8.003 0 0 1 12 6V2l8 6-8 6v-4Z" /></g><defs><clipPath id="a"><path fill="#fff" d="M0 0h24v24H0z"/></clipPath></defs></svg>
